X:2391
T:Yn Coayl Jeh ny Baatyn Skeddan
T:(the Loss of the Herring Fleet) 
C:John Caine, Douglas 
C:Traditional
O:Isle of Man
B:Moore Collection
N:See also KV224,244,259,274,284
Z:Kiaull Vannin 391 
M:3/4 
L:1/4 
K:D 
F|G A c|d2 (e/d/)|=c (d/c/) B|A2 (F/G/)|A B c|d e>d|d !fermata!c (B/A/)| 
F A G|E2 (D/E/)|F D (E/F/)|G2 (F/G/)|A<d B|A F D|E D|| 

